X: 08015
T: BOMMARITO'S HORNPIPE
C: Bob McQuillen 25 Jan 91
B: Bob's Note Book 8 #15
%R: hornpipe, reel
Z: 2021 John Chambers <jc:trillian.mit.edu>
M: C
L: 1/8
K: G
GE \
| DGBG EGcE | DGBG AGFG | AGBd cBAG | FAGE DCB,C |\
| DGBG EGcE | DGBG AGFG | AGBd cAFG | A2G2 G2 :|
|: BG \
| AGAB cBAB | cBAG FDBA | GABc dcBA | Bcde d2Bd |\
| ecGE "^*"[CG]EGe | dBGD "^*"[B,G]DGB | cedc BGAG | D2G2 G2 :|
%%text * Top note is flute substitoot
N: Bob actualy marked the "substitoot" notes with 'x' for the note head.
%%begintext align
%% Seattle, WA,
%% is a hustling, bustling, behive of dance activities,
%% and one of the king bees in that scene is Larry
%% Bommarito - I never saw anybody have more
%% fun on the floor than Larry does - Hope you like
%% your tune, old friend!
%%endtext

%%sep 1 1 500

%%sep 1 1 500

